X: 19258
T: Itchy Fingers
R: reel
M: 4/4
K: Dmajor
|:FG|A2AB ADFA|BDGB A2FG|A2AB ADFA|FDGF E2FG|
A2AB ADFA|BDGB A2FA|GFFE EBAE|F2D2 D2:|
|:FA|d2Dd FdDd|BDGB A2FA|d2Dd FdDd|FDGF E2|
[1 FA|d2Dd FdDd|BDGB A2FA|GFFE EBAE|F2D2 D2:|
[2 FG|A2AB AF ~F2|~G2dB A2FA|GFFE EBAE|F2D2 D2||
|:FG|ADFA DFAD|BDGB A2 FG|ADFA DFAG|FDGF E2 FG|
ADFA DFAd|BDGB A2 FA|GFFE EBAE|F2 D2 D2:|
|:Bc|d2Dd FdAd|BdGd A2Bc|d2Dd FdAd|FDGF E2|
[1 Bc|d2Dd FdAd|BdGd A2FA|GFFE EBAE|F2 D2 D2:|
[2 FG|A2AB AF ~F2|~G2dB A2FA|GFFE EBAE|F2D2 D2||

